libs/ui/packages/crypto-icons/src/svg/SOC.svg

<svg width="24" height="24" viewBox="0 0 24 24" fill="none">
<path d="M12 3C7.02975 3 3 7.02975 3 12C3 16.9703 7.02975 21 12 21C16.9703 21 21 16.9703 21 12C21 9.61305 20.0518 7.32387 18.364 5.63604C16.6761 3.94821 14.3869 3 12 3ZM14.0573 19.677C13.0219 19.9529 11.9414 20.0166 10.8808 19.8642C9.82025 19.7118 8.80142 19.3465 7.88562 18.7903C6.96981 18.2341 6.17594 17.4984 5.55174 16.6276C4.92754 15.7567 4.4859 14.7685 4.25337 13.7226C4.02084 12.6766 4.00223 11.5945 4.19865 10.5411C4.39507 9.48782 4.80247 8.48509 5.39635 7.59325C5.99024 6.7014 6.75834 5.93887 7.65447 5.35149C8.55061 4.7641 9.55627 4.36401 10.611 4.17525C12.6273 3.81899 14.7033 4.25464 16.4063 5.39138C18.1093 6.52813 19.3078 8.27826 19.7522 10.277C20.1965 12.2757 19.8524 14.3688 18.7914 16.12C17.7304 17.8712 16.0346 19.1454 14.0573 19.677Z" fill="#199248"/>
<path d="M14.1975 5.46528C14.1975 5.85303 14.1975 6.24003 14.2125 6.62778C13.6938 6.4265 13.1538 6.28509 12.603 6.20628C12.5805 5.85453 12.681 5.46828 12.5783 5.13453C12.1859 5.10656 11.7922 5.1018 11.3993 5.12028C11.3798 5.48178 11.3873 5.84478 11.3993 6.20778C10.8483 6.29021 10.3083 6.43463 9.78977 6.63828C9.80102 6.24678 9.80477 5.85603 9.79952 5.46378C8.43044 5.92476 7.24057 6.80383 6.39768 7.97704C5.55479 9.15025 5.10138 10.5584 5.10138 12.003C5.10138 13.4476 5.55479 14.8558 6.39768 16.029C7.24057 17.2022 8.43044 18.0813 9.79952 18.5423C9.79952 18.1583 9.79576 17.7758 9.78827 17.3933C10.3029 17.5947 10.8401 17.733 11.388 17.805C11.388 18.1568 11.388 18.5085 11.367 18.8565C11.787 18.9165 12.213 18.9165 12.633 18.8565C12.6139 18.5101 12.6039 18.1632 12.603 17.8163C13.1513 17.7392 13.6895 17.6024 14.208 17.4083C14.1961 17.7882 14.1961 18.1684 14.208 18.5483C15.5765 18.0863 16.7656 17.2064 17.6075 16.0328C18.4494 14.8591 18.9018 13.4508 18.9009 12.0064C18.9 10.562 18.4458 9.15433 17.6024 7.98175C16.759 6.80916 15.5689 5.93082 14.1998 5.47053L14.1983 5.46528H14.1975ZM15.225 15.9165C14.319 16.7378 13.032 16.932 11.85 16.9148C10.8128 16.9148 9.71477 16.6335 8.96552 15.8828C8.56802 15.4988 8.34301 14.9858 8.14126 14.4765C8.86576 14.289 9.61352 14.226 10.3433 14.07C10.3886 14.2907 10.4914 14.4954 10.6413 14.6636C10.7912 14.8318 10.9828 14.9574 11.1968 15.0278C11.859 15.2348 12.6795 15.264 13.2315 14.7915C13.623 14.4668 13.6343 13.7565 13.149 13.5135C12.0113 12.9255 10.5938 13.125 9.51827 12.381C8.03701 11.4473 7.92752 8.97078 9.37727 7.96278C10.4858 7.18503 11.9678 7.08828 13.2533 7.40028C14.4158 7.69428 15.2445 8.67978 15.6435 9.77103C14.928 9.89478 14.2133 10.0215 13.4978 10.1423C13.3095 9.00603 11.7188 8.73603 10.9283 9.39828C10.4783 9.77253 10.5938 10.5698 11.1563 10.7693C12.3863 11.2793 13.8638 11.1323 14.9535 11.9858C16.2188 12.8438 16.3508 14.8928 15.2243 15.9158L15.225 15.9165Z" fill="#199248"/>
</svg>

<svg width="24" height="24" viewBox="0 0 24 24" fill="none"><path fill="#199248" d="M12 3a9 9 0 1 0 0 18 9 9 0 0 0 0-18m2.057 16.677a7.947 7.947 0 1 1-3.446-15.502 7.948 7.948 0 0 1 3.446 15.502"/><path fill="#199248" d="M14.198 5.465c0 .388 0 .775.014 1.163a7.3 7.3 0 0 0-1.609-.422c-.022-.351.078-.738-.025-1.071A10 10 0 0 0 11.4 5.12c-.02.362-.012.725 0 1.088a7.4 7.4 0 0 0-1.61.43q.018-.586.01-1.174a6.9 6.9 0 0 0 0 13.078q0-.575-.01-1.149c.514.202 1.051.34 1.599.412 0 .352 0 .704-.021 1.052.42.06.846.06 1.266 0a20 20 0 0 1-.03-1.04 7.6 7.6 0 0 0 1.605-.409q-.018.57 0 1.14A6.9 6.9 0 0 0 14.2 5.471zm1.027 10.452c-.906.82-2.193 1.015-3.375.998-1.037 0-2.135-.281-2.884-1.032-.398-.384-.623-.897-.825-1.406.725-.188 1.473-.251 2.202-.407a1.28 1.28 0 0 0 .854.958c.662.207 1.483.236 2.035-.237.391-.324.402-1.034-.083-1.277-1.138-.588-2.555-.389-3.63-1.133-1.482-.934-1.591-3.41-.142-4.418 1.109-.778 2.59-.875 3.876-.563 1.163.294 1.992 1.28 2.39 2.371q-1.072.188-2.145.371c-.188-1.136-1.78-1.406-2.57-.744-.45.375-.334 1.172.228 1.371 1.23.51 2.708.363 3.797 1.217 1.266.858 1.398 2.907.271 3.93z"/></svg>
